X:1
T:Title
%%score ( 1 2 ) { 3 | 4 }
L:1/8
Q:1/4=115
M:4/4
K:G
V:1 treble nm="Grand Piano, Right Hand"
V:2 treble 
V:3 treble nm="Choir Pad, Gud Faders S�n enbaarne"
V:4 bass 
V:1
 [DG]2 [EG]2 [GB]2 [FA]2 | [EG]2 F2- [^DF]2 E2 | [DB]2 [Cc]2 [EA]2 [DB]2 | [CA]2 [B,G]6 | %4
w: By~Erfurt,~1524 * * *||||
 [DG]2 [EG]2 [DB]2 [CA]2 | [B,G]2 [^DF]4 E2 | [DB]2 [Cc]2 [DA]2 B2 | A2 [B,G]6 | %8
w: ||||
 G2 [GB]2 [FB]2 [Gc]2 | [Ac]2 d2- [Gd]2 [FA]2 | [Gd]2 [GB]2 [EB]2 [^DA]2 | z2 F4 z2 | %12
w: ||||
 [DB]2 [Cc]2 [EA]2 [DB]2 | [CA]2 [B,G]6- | [B,G]2 z2 z4 |] %15
w: |||
V:2
 x8 | z2 E2 z4 | x8 | x8 | x8 | x8 | z4 z2 D2- | D2 z2 z4 | x8 | z2 A2 z4 | x8 | [EG]2 E2 ^D2 E2 | %12
 x8 | x8 | x8 |] %15
V:3
 B,2 C2 D2 C2 | C2[K:bass] A,4 G,2 | G,2 G,2 G,2 G,2 | F,2 G,6 | G,2 G,2 G,2 F,2 | G,2 A,4 G,2 | %6
 G,2 G,2 A,2 G,2 | F,2 G,6 | B,2[K:treble] D2 D2 E2 | E2 D4 D2 | D2 D2 E2[K:bass] B,2 | %11
 B,2 A,4 G,2 | G,2 G,2 G,2 F,2 | F,2 G,6- | G,2 z2 z4 |] %15
V:4
 G,2 C,2 G,,2 A,,2 | A,,2 B,,4 C,2 | B,,2 A,,2 C,2 D,2 | D,2 G,,6 | B,,2 C,2 D,2 ^D,2 | %5
 E,2 B,,4 C,2 | D,2 E,2 F,2 z2 | D,2 G,,6 | E,2 D,2 D,2 C,2 | A,,2 B,,4 D,2 | B,2 G,2 G,2 F,2 | %11
 E,2 B,,4 E,2 | z2 E,2 C,2 D,2 | D,2 G,,6- | G,,2 z2 z4 |] %15

